src/assets/flags/kr.svg

<?xml version="1.0" encoding="UTF-8"?>
<svg xmlns="http://www.w3.org/2000/svg" xmlns:xlink="http://www.w3.org/1999/xlink" width="25px" height="px" viewBox="0 0 25 19" version="1.1">
<g id="surface1">
<rect x="0" y="0" width="25" height="19" style="fill:rgb(100%,100%,100%);fill-opacity:1;stroke:none;"/>
<path style=" stroke:none;fill-rule:evenodd;fill:rgb(0%,0%,0.392157%);fill-opacity:1;" d="M 2.738281 5.773438 L 5.339844 1.820312 L 5.988281 2.257812 L 3.390625 6.210938 Z M 3.714844 6.429688 L 6.316406 2.480469 L 6.964844 2.917969 L 4.363281 6.871094 Z M 4.6875 7.089844 L 7.289062 3.136719 L 7.941406 3.578125 L 5.339844 7.527344 Z M 4.6875 7.089844 "/>
<path style=" stroke:none;fill-rule:evenodd;fill:rgb(0%,0%,0.392157%);fill-opacity:1;" d="M 17.039062 15.433594 L 19.640625 11.484375 L 20.289062 11.921875 L 17.6875 15.875 Z M 18.011719 16.09375 L 20.613281 12.140625 L 21.265625 12.582031 L 18.664062 16.535156 Z M 18.988281 16.753906 L 21.589844 12.800781 L 22.238281 13.242188 L 19.636719 17.191406 Z M 18.988281 16.753906 "/>
<path style="fill-rule:evenodd;fill:rgb(0%,0%,0%);fill-opacity:1;stroke-width:1;stroke-linecap:butt;stroke-linejoin:miter;stroke:rgb(100%,100%,100%);stroke-opacity:1;stroke-miterlimit:4;" d="M 0.000522221 16.993687 L -0.00544343 26.998214 " transform="matrix(0.216736,-0.329315,0.324982,0.219626,12.48896,9.506198)"/>
<path style=" stroke:none;fill-rule:evenodd;fill:rgb(80.392158%,18.039216%,22.745098%);fill-opacity:1;" d="M 8.589844 6.871094 C 10.027344 4.6875 12.9375 4.097656 15.089844 5.554688 C 17.242188 7.011719 17.824219 9.960938 16.390625 12.140625 Z M 8.589844 6.871094 "/>
<path style=" stroke:none;fill-rule:evenodd;fill:rgb(0%,27.843139%,62.7451%);fill-opacity:1;" d="M 8.589844 6.871094 C 7.152344 9.054688 7.734375 12.003906 9.886719 13.457031 C 12.042969 14.914062 14.953125 14.324219 16.390625 12.140625 C 17.105469 11.050781 16.816406 9.574219 15.738281 8.847656 C 14.664062 8.121094 13.207031 8.414062 12.488281 9.507812 Z M 8.589844 6.871094 "/>
<path style=" stroke:none;fill-rule:evenodd;fill:rgb(80.392158%,18.039216%,22.745098%);fill-opacity:1;" d="M 11.839844 6.210938 C 10.761719 5.484375 9.308594 5.78125 8.589844 6.871094 C 7.871094 7.960938 8.160156 9.4375 9.238281 10.164062 C 10.316406 10.890625 11.769531 10.597656 12.488281 9.507812 C 13.207031 8.414062 12.917969 6.941406 11.839844 6.210938 Z M 11.839844 6.210938 "/>
<path style=" stroke:none;fill-rule:evenodd;fill:rgb(0%,0%,0.392157%);fill-opacity:1;" d="M 5.351562 17.195312 L 2.75 13.242188 L 3.398438 12.804688 L 6 16.753906 Z M 6.324219 16.535156 L 3.726562 12.582031 L 4.375 12.144531 L 6.976562 16.097656 Z M 7.300781 15.875 L 4.699219 11.925781 L 5.351562 11.484375 L 7.949219 15.4375 Z M 7.300781 15.875 "/>
<path style=" stroke:none;fill-rule:evenodd;fill:rgb(0%,0%,0.392157%);fill-opacity:1;" d="M 19.648438 7.53125 L 17.050781 3.578125 L 17.699219 3.140625 L 20.300781 7.089844 Z M 20.625 6.871094 L 18.023438 2.917969 L 18.675781 2.480469 L 21.273438 6.433594 Z M 21.601562 6.210938 L 19 2.261719 L 19.648438 1.820312 L 22.25 5.773438 Z M 21.601562 6.210938 "/>
<path style="fill-rule:evenodd;fill:rgb(0%,0%,0%);fill-opacity:1;stroke-width:1;stroke-linecap:butt;stroke-linejoin:miter;stroke:rgb(100%,100%,100%);stroke-opacity:1;stroke-miterlimit:4;" d="M 0.00105879 -23.49728 L -0.00121131 -20.505841 M 0.00268971 16.998816 L 0.00547711 20.498463 M -0.00234144 23.498221 L -0.00194991 26.503454 " transform="matrix(-0.216736,-0.329315,0.324982,-0.219626,12.499708,9.507705)"/>
</g>
</svg>

<svg xmlns="http://www.w3.org/2000/svg" width="25" height="px" viewBox="0 0 25 19"><path d="M0 0h25v19H0z" style="fill:#fff;fill-opacity:1;stroke:none"/><path d="M2.738 5.773 5.34 1.82l.648.438L3.391 6.21Zm.977.657 2.601-3.95.649.438-2.602 3.953Zm.973.66 2.601-3.953.652.441-2.601 3.95ZM17.04 15.434l2.6-3.95.65.438-2.602 3.953Zm.972.66 2.601-3.953.653.441-2.602 3.953Zm.976.66L21.59 12.8l.648.441-2.601 3.95Zm0 0" style="stroke:none;fill-rule:evenodd;fill:#000001;fill-opacity:1"/><path d="m0 16.994-.005 10.004" style="fill-rule:evenodd;fill:#000;fill-opacity:1;stroke-width:1;stroke-linecap:butt;stroke-linejoin:miter;stroke:#fff;stroke-opacity:1;stroke-miterlimit:4" transform="matrix(.21674 -.32932 .32498 .21963 12.489 9.506)"/><path d="M8.59 6.871c1.437-2.184 4.348-2.773 6.5-1.316s2.734 4.406 1.3 6.586Zm0 0" style="stroke:none;fill-rule:evenodd;fill:#cd2e3a;fill-opacity:1"/><path d="M8.59 6.871c-1.438 2.184-.856 5.133 1.297 6.586a4.65 4.65 0 0 0 6.504-1.316 2.396 2.396 0 0 0-.653-3.293 2.324 2.324 0 0 0-3.25.66Zm0 0" style="stroke:none;fill-rule:evenodd;fill:#0047a0;fill-opacity:1"/><path d="M11.84 6.21a2.327 2.327 0 0 0-3.25.661 2.39 2.39 0 0 0 .648 3.293 2.326 2.326 0 0 0 3.25-.656 2.397 2.397 0 0 0-.648-3.297m0 0" style="stroke:none;fill-rule:evenodd;fill:#cd2e3a;fill-opacity:1"/><path d="M5.352 17.195 2.75 13.242l.648-.437L6 16.754Zm.972-.66-2.597-3.953.648-.437 2.602 3.953Zm.977-.66-2.602-3.95.653-.44 2.597 3.953ZM19.648 7.531l-2.597-3.953.648-.437 2.602 3.949Zm.977-.66-2.602-3.953.653-.438 2.597 3.954Zm.977-.66L19 2.26l.648-.44 2.602 3.952Zm0 0" style="stroke:none;fill-rule:evenodd;fill:#000001;fill-opacity:1"/><path d="M.001-23.497 0-20.506M.003 17l.002 3.5m-.007 3v3.004" style="fill-rule:evenodd;fill:#000;fill-opacity:1;stroke-width:1;stroke-linecap:butt;stroke-linejoin:miter;stroke:#fff;stroke-opacity:1;stroke-miterlimit:4" transform="matrix(-.21674 -.32932 .32498 -.21963 12.5 9.508)"/></svg>
